Sources/FrostedUI/Resources/Icons.xcassets/squareAdd32.imageset/square-add-32.svg

<svg width="32" height="32" viewBox="0 0 32 32" fill="none" xmlns="http://www.w3.org/2000/svg" data-fui-icon="true">
  <path
    d="M24.333 4.25C26.22 4.25 27.75 5.78003 27.75 7.66699V15C27.75 15.4142 27.4142 15.75 27 15.75C26.5858 15.75 26.25 15.4142 26.25 15V7.66699C26.25 6.60844 25.3916 5.75 24.333 5.75H7.66699C6.60845 5.75 5.75 6.60845 5.75 7.66699V24.333C5.75 25.3916 6.60844 26.25 7.66699 26.25H16.333C16.7472 26.25 17.083 26.5858 17.083 27C17.083 27.4142 16.7472 27.75 16.333 27.75H7.66699C5.78003 27.75 4.25 26.22 4.25 24.333V7.66699C4.25 5.78002 5.78002 4.25 7.66699 4.25H24.333ZM24.333 18.25C24.7472 18.25 25.083 18.5858 25.083 19V22.25H28.333C28.7472 22.25 29.083 22.5858 29.083 23C29.083 23.4142 28.7472 23.75 28.333 23.75H25.083V27C25.083 27.4142 24.7472 27.75 24.333 27.75C23.9189 27.7498 23.583 27.4141 23.583 27V23.75H20.333C19.9189 23.7498 19.583 23.4141 19.583 23C19.583 22.5859 19.9189 22.2502 20.333 22.25H23.583V19C23.583 18.5859 23.9189 18.2502 24.333 18.25Z"
    fill="currentColor"
  />
</svg>

<svg xmlns="http://www.w3.org/2000/svg" width="32" height="32" fill="none" data-fui-icon="true" viewBox="0 0 32 32"><path fill="currentColor" d="M24.333 4.25a3.417 3.417 0 0 1 3.417 3.417V15a.75.75 0 0 1-1.5 0V7.667a1.917 1.917 0 0 0-1.917-1.917H7.667A1.917 1.917 0 0 0 5.75 7.667v16.666c0 1.059.858 1.917 1.917 1.917h8.666a.75.75 0 0 1 0 1.5H7.667a3.417 3.417 0 0 1-3.417-3.417V7.667A3.417 3.417 0 0 1 7.667 4.25zm0 14a.75.75 0 0 1 .75.75v3.25h3.25a.75.75 0 0 1 0 1.5h-3.25V27a.75.75 0 0 1-1.5 0v-3.25h-3.25a.75.75 0 0 1 0-1.5h3.25V19a.75.75 0 0 1 .75-.75"/></svg>
